files/2/256x256/places/folder-pictures.svg

<?xml version="1.0" encoding="UTF-8" standalone="no"?>
<svg
   xmlns:dc="http://purl.org/dc/elements/1.1/"
   xmlns:cc="http://creativecommons.org/ns#"
   xmlns:rdf="http://www.w3.org/1999/02/22-rdf-syntax-ns#"
   xmlns:svg="http://www.w3.org/2000/svg"
   xmlns="http://www.w3.org/2000/svg"
   xmlns:sodipodi="http://sodipodi.sourceforge.net/DTD/sodipodi-0.dtd"
   xmlns:inkscape="http://www.inkscape.org/namespaces/inkscape"
   width="256"
   height="256"
   viewBox="0 0 256 256"
   id="svg3157"
   version="1.1"
   inkscape:version="0.48.4 r9939"
   sodipodi:docname="folder-pictures.svg">
  <metadata
     id="metadata3185">
    <rdf:RDF>
      <cc:Work
         rdf:about="">
        <dc:format>image/svg+xml</dc:format>
        <dc:type
           rdf:resource="http://purl.org/dc/dcmitype/StillImage" />
      </cc:Work>
    </rdf:RDF>
  </metadata>
  <defs
     id="defs3183" />
  <sodipodi:namedview
     pagecolor="#ffffff"
     bordercolor="#666666"
     borderopacity="1"
     objecttolerance="10"
     gridtolerance="10"
     guidetolerance="10"
     inkscape:pageopacity="0"
     inkscape:pageshadow="2"
     inkscape:window-width="678"
     inkscape:window-height="480"
     id="namedview3181"
     showgrid="false"
     inkscape:zoom="0.921875"
     inkscape:cx="37.966102"
     inkscape:cy="126.91525"
     inkscape:window-x="0"
     inkscape:window-y="0"
     inkscape:window-maximized="0"
     inkscape:current-layer="svg3157" />
  <path
     inkscape:connector-curvature="0"
     id="path3009"
     d="m 34.773442,204 c -3.67579,-0.375 -6.77344,-4.06641 -6.77344,-8.01562 l 0,-151.92969 c 0,-4.214848 3.56641,-8.054688 7.5,-8.054688 l 184.999998,0 c 3.93359,0 7.5,3.83984 7.5,8.054688 l 0,129.8789 c 0,4.21485 -5.7461,10.26954 -9.67578,10.26954 l -67.72266,-0.12112 0,10.59375 c 0,4.17969 -3.28906,9.32422 -7.19922,9.32422 L 35.500002,204 c -0.23438,0 -0.46875,0 -0.72656,0 z"
     style="fill:#e9a439;fill-opacity:1;stroke:#e9a439;stroke-width:8;stroke-opacity:1" />
  <path
     inkscape:connector-curvature="0"
     id="path3011"
     d="M 12.39844,52.000002 C 7.843752,52.375002 4,56.06641 4,60.015626 L 4,211.94531 C 4,216.16016 8.425784,220 13.300784,220 l 229.398436,0 c 4.875,0 9.30078,-3.83984 9.30078,-8.05469 l 0,-129.8789 c 0,-4.214848 -7.125,-10.269536 -12,-10.269536 l -83.97266,0.121096 0,-10.593752 c 0,-4.179688 -4.08203,-9.324216 -8.92578,-9.324216 l -133.800776,0 c -0.289064,0 -0.582032,0 -0.902344,0 z"
     style="fill:#f5c14e;fill-opacity:1;stroke:#e9a439;stroke-width:8;stroke-opacity:1" />
  <path
     style="fill:#d0a444;fill-opacity:1"
     inkscape:connector-curvature="0"
     id="path3167"
     d="m 93.539062,104 c -2.8125,0.26563 -5.246093,3.22266 -5.1875,6.38672 l 0,67.37109 c 0.03125,3.3125 2.695313,6.30078 5.625,6.24219 l 68.542968,0 c 2.90234,-0.0312 5.44922,-2.98828 5.48047,-6.24219 l 0,-67.37109 c 0.0586,-3.30859 -2.51953,-6.35547 -5.48047,-6.38672 z M 96,112 l 64,0 0,56 -64,0 z" />
  <g
     id="g3169"
     style="fill:#d0a444;fill-rule:evenodd;fill-opacity:1">
    <path
       inkscape:connector-curvature="0"
       id="path3171"
       d="m 88.207031,156.16016 c 1.140625,-0.82032 3.808594,-3.33985 8.175781,-7.64844 4.335938,-4.36719 10.136718,-10.3125 17.640628,-18.13672 4.92187,7.00391 8.52734,12.04297 11.1914,15.35547 2.60938,3.28125 4.07422,4.71484 4.42578,4.30469 2.78516,-2.48829 5.09766,-4.59766 7.1211,-6.44532 1.99219,-1.84765 3.51562,-3.37109 4.74609,-4.60156 6.125,7.67969 11.16406,14.00781 15.6211,19.33984 4.36328,5.30469 7.82421,9.32032 10.51953,12.28125 l -16.61719,-13.80468 c -1.375,3.51562 -3.63281,5.36328 -6.79688,5.51172 -3.28125,0.0859 -8.23437,-3.8711 -12.21875,-4.60157 -4.01562,-0.73437 -7.99999,1.52344 -11.54687,0.32032 -3.63281,-1.28907 -6.44531,-6.38672 -9.84766,-7.67579 -3.42578,-1.32031 -6.88281,-1.32031 -10.51953,0 -3.953122,1.9336 -7.910154,3.86719 -11.894529,5.80079 z"
       style="fill:#d0a444;fill-opacity:1" />
    <path
       inkscape:connector-curvature="0"
       id="path3173"
       d="m 88,153.52344 c 1.144531,-0.85157 3.78125,-3.33985 8.148438,-7.67578 4.335942,-4.33985 10.136722,-10.28907 17.640622,-18.11328 4.92188,6.97656 8.52735,12.04687 11.22266,15.35546 2.60547,3.28516 4.04297,4.69141 4.39453,4.3086 2.78516,-2.49219 5.12891,-4.60157 7.12109,-6.44532 1.99219,-1.875 3.54688,-3.39843 4.7461,-4.60156 6.125,7.67578 11.19531,14.00781 15.62109,19.33985 4.36328,5.30468 7.85156,9.32031 10.51953,12.27734 l -16.61719,-13.82813 c -1.375,3.57422 -3.60156,5.35938 -6.79687,5.53516 -3.22266,0.11719 -8.20703,-3.89453 -12.21875,-4.59766 -4.01562,-0.73437 -7.97266,1.52344 -11.54687,0.29297 -3.60547,-1.28906 -6.41797,-6.33203 -9.84766,-7.64843 -3.42578,-1.32032 -6.85547,-1.32032 -10.519532,0 -3.953126,1.93359 -7.910157,3.86718 -11.867188,5.82812 z"
       style="fill:#d0a444;fill-opacity:1" />
  </g>
  <path
     style="fill:#d0a444;fill-opacity:1"
     inkscape:connector-curvature="0"
     id="path3175"
     d="m 103.26563,149.01172 39.76562,0 c 5.51172,0 9.99219,4.48047 9.99219,9.99219 l 0,5.01171 c 0,5.50782 -4.48047,9.99219 -9.99219,9.99219 l -39.76562,0 c -5.507818,0 -9.992192,-4.48437 -9.992192,-9.99219 l 0,-5.01171 c 0,-5.51172 4.484374,-9.99219 9.992192,-9.99219 z" />
  <path
     style="fill:#d0a444;fill-opacity:1"
     inkscape:connector-curvature="0"
     id="path3177"
     d="m 153.05469,159.00391 4.92187,0 c 2.75391,0 5.01172,2.22656 5.01172,5.01171 0,2.75391 -2.25781,4.98047 -5.01172,4.98047 l -4.92187,0 c -2.75391,0 -5.01172,-2.22656 -5.01172,-4.98047 0,-2.78515 2.25781,-5.01171 5.01172,-5.01171 z" />
  <path
     style="fill:#d0a444;fill-opacity:1"
     inkscape:connector-curvature="0"
     id="path3179"
     d="m 148.19141,154.60937 4.94921,0 c 1.37891,0 2.52344,1.14063 2.52344,2.51954 l 0,4.98046 c 0,1.37891 -1.14453,2.51954 -2.52344,2.51954 l -4.94921,0 c -1.37891,0 -2.49219,-1.14063 -2.49219,-2.51954 l 0,-4.98046 c 0,-1.37891 1.11328,-2.51954 2.49219,-2.51954 z" />
</svg>

<svg width="256" xmlns="http://www.w3.org/2000/svg" height="256" viewBox="0 0 256 256" xmlns:xlink="http://www.w3.org/1999/xlink">
<g style="stroke:#e9a439">
<path style="fill:#e9a439" d="M 4.34668 24.5 C 3.887207 24.453125 3.5 23.991699 3.5 23.498047 L 3.5 4.506836 C 3.5 3.97998 3.945801 3.5 4.4375 3.5 L 27.5625 3.5 C 28.054199 3.5 28.5 3.97998 28.5 4.506836 L 28.5 20.741699 C 28.5 21.268555 27.781738 22.025391 27.290527 22.025391 L 18.825195 22.010254 L 18.825195 23.334473 C 18.825195 23.856934 18.414062 24.5 17.925293 24.5 L 4.4375 24.5 C 4.408203 24.5 4.378906 24.5 4.34668 24.5 Z " transform="matrix(8 0 0 8 0 8)"/>
<path style="fill:#f5c14e" d="M 1.549805 5.5 C 0.980469 5.546875 0.5 6.008301 0.5 6.501953 L 0.5 25.493164 C 0.5 26.02002 1.053223 26.5 1.662598 26.5 L 30.337402 26.5 C 30.946777 26.5 31.5 26.02002 31.5 25.493164 L 31.5 9.258301 C 31.5 8.731445 30.609375 7.974609 30 7.974609 L 19.503418 7.989746 L 19.503418 6.665527 C 19.503418 6.143066 18.993164 5.5 18.387695 5.5 L 1.662598 5.5 C 1.626465 5.5 1.589844 5.5 1.549805 5.5 Z " transform="matrix(8 0 0 8 0 8)"/>
</g>
<g style="fill:#e9a439">
<path d="M 93.539062 104 C 90.726562 104.265625 88.292969 107.222656 88.351562 110.386719 L 88.351562 177.757812 C 88.382812 181.070312 91.046875 184.058594 93.976562 184 L 162.519531 184 C 165.421875 183.96875 167.96875 181.011719 168 177.757812 L 168 110.386719 C 168.058594 107.078125 165.480469 104.03125 162.519531 104 Z M 96 112 L 160 112 L 160 168 L 96 168 Z "/>
<g style="fill-rule:evenodd">
<path d="M 88.207031 156.160156 C 89.347656 155.339844 92.015625 152.820312 96.382812 148.511719 C 100.71875 144.144531 106.519531 138.199219 114.023438 130.375 C 118.945312 137.378906 122.550781 142.417969 125.214844 145.730469 C 127.824219 149.011719 129.289062 150.445312 129.640625 150.035156 C 132.425781 147.546875 134.738281 145.4375 136.761719 143.589844 C 138.753906 141.742188 140.277344 140.21875 141.507812 138.988281 C 147.632812 146.667969 152.671875 152.996094 157.128906 158.328125 C 161.492188 163.632812 164.953125 167.648438 167.648438 170.609375 L 151.03125 156.804688 C 149.65625 160.320312 147.398438 162.167969 144.234375 162.316406 C 140.953125 162.402344 136 158.445312 132.015625 157.714844 C 128 156.980469 124.015625 159.238281 120.46875 158.035156 C 116.835938 156.746094 114.023438 151.648438 110.621094 150.359375 C 107.195312 149.039062 103.738281 149.039062 100.101562 150.359375 C 96.148438 152.292969 92.191406 154.226562 88.207031 156.160156 Z "/>
<path d="M 88 153.523438 C 89.144531 152.671875 91.78125 150.183594 96.148438 145.847656 C 100.484375 141.507812 106.285156 135.558594 113.789062 127.734375 C 118.710938 134.710938 122.316406 139.78125 125.011719 143.089844 C 127.617188 146.375 129.054688 147.78125 129.40625 147.398438 C 132.191406 144.90625 134.535156 142.796875 136.527344 140.953125 C 138.519531 139.078125 140.074219 137.554688 141.273438 136.351562 C 147.398438 144.027344 152.46875 150.359375 156.894531 155.691406 C 161.257812 160.996094 164.746094 165.011719 167.414062 167.96875 L 150.796875 154.140625 C 149.421875 157.714844 147.195312 159.5 144 159.675781 C 140.777344 159.792969 135.792969 155.78125 131.78125 155.078125 C 127.765625 154.34375 123.808594 156.601562 120.234375 155.371094 C 116.628906 154.082031 113.816406 149.039062 110.386719 147.722656 C 106.960938 146.402344 103.53125 146.402344 99.867188 147.722656 C 95.914062 149.65625 91.957031 151.589844 88 153.550781 Z "/>
</g>
<path d="M 103.265625 149.011719 L 143.03125 149.011719 C 148.542969 149.011719 153.023438 153.492188 153.023438 159.003906 L 153.023438 164.015625 C 153.023438 169.523438 148.542969 174.007812 143.03125 174.007812 L 103.265625 174.007812 C 97.757812 174.007812 93.273438 169.523438 93.273438 164.015625 L 93.273438 159.003906 C 93.273438 153.492188 97.757812 149.011719 103.265625 149.011719 Z "/>
<path d="M 153.054688 159.003906 L 157.976562 159.003906 C 160.730469 159.003906 162.988281 161.230469 162.988281 164.015625 C 162.988281 166.769531 160.730469 168.996094 157.976562 168.996094 L 153.054688 168.996094 C 150.300781 168.996094 148.042969 166.769531 148.042969 164.015625 C 148.042969 161.230469 150.300781 159.003906 153.054688 159.003906 Z "/>
<path d="M 148.191406 154.609375 L 153.140625 154.609375 C 154.519531 154.609375 155.664062 155.75 155.664062 157.128906 L 155.664062 162.109375 C 155.664062 163.488281 154.519531 164.628906 153.140625 164.628906 L 148.191406 164.628906 C 146.8125 164.628906 145.699219 163.488281 145.699219 162.109375 L 145.699219 157.128906 C 145.699219 155.75 146.8125 154.609375 148.191406 154.609375 Z "/>
</g>
</svg>
